X:1
T:Kempshot Hunt
M:2/4
L:1/8
Q:320
S:Aird Vol 4, 179**
S:ChristopherGeorge Partington <ChrisTheFiddlerPartington:Hotmail.com> tradtunes 2008-1-26
Z:Chris Partington
K:Gmix
Ge|d2Bd|BA/G/ Bd|Bd (c/B/A/G/)|cAAe|\
d2Bd|BA/G/ Bd|Bdce|dGG:|\
|:A|(3GAG) (d.B.)|e>cd>B|(3GAG) (d.B.)|cAA>B|\
(3GAG) (d.B.)|ecdc|Bdce|dGG:|\
|:d|g2dB|g2dB|g2dB|cAAf|\
g2dB|g2dB|Bdce|dGG:||
%  ABC2Win Version 2.1 26/01/2008
